X:75
T:Rambling Pitchfork, The
S:The Session: https://thesession.org/tunes/89#setting89
S:https://JamBuddy.live 2025
C:Traditional
R:jig
K:D
M:6/8
L:1/8
Q:113
|: F2F AFF| dFF AFF| G2G ABc| ded cAG|
! FEF AFF| dFF AFF| GFG BAG| FDD D3:| ! |:
d2e fed| ecA ABc| dcd fed| faf gfe|
! d2e fed| ecA BAF| GFG BAG| FDD D3:|

